!!!OTL: Folk song Number 18
!!!CNT: Chinese
**kern
*k[]
*M3/4
=1
8ee
(16dd
16ee)
8a
8cc
(16dd
16ee)
(16a
16cc)
=2
2.dd
=3
8cc
8dd
8a
(16g
16e)
8g
8dd
=4
2.dd
=5
8e
8cc
8cc
(16a
16g)
(16e
16g)
(16a
16cc)
=6
8dd
(16a
[16cc
4.cc]
16dd
16cc)
=7
8a
(16g
16e)
8cc
8dd
8a
(16g
16e)
=8
(16e
16g)
(8a
2g)
==
*-
!!!PPR: Yin yueh ch'u pan she
!!!OPR: Chung-kuo min ko Chung-kuo yin yueh yen chiu so pien [Chinese folk songs]
!!!OCL: Chung-kuo yin yueh yen chiu so
!!!PPP: Beijing, China
!!!PDT: 1959///
!!!SML: Edward Johnson Library, University of Toronto M1804.C4694C5
!!!PPG: p.11
!!!ENC: David Huron
!!!EMD: Paul von Hippel updated this file in the following ways (1998/9/29/):
!!!EMD:  (1) changed the representation of slurs from curly braces to parentheses 
!!!EMD:  (2) changed freeform comments into reference records and tandem interpretations
!!!EMD:  (3) corrected the author, title, author, and call number of the printed source 
!!!EEV: Version 2.0
